static/images/facebook.svg

<svg height="132.369" width="133.252" xmlns="http://www.w3.org/2000/svg"><circle cx="66.626" cy="66.185" fill="#3B5999" r="63.333"/><path d="M111.429 21.496c24.732 24.732 24.733 64.832-.001 89.566-24.733 24.733-64.834 24.733-89.566 0l89.567-89.566z" fill="#355388"/><path d="M129.549 73.317L83.737 27.505 59.953 51.29l1.417 1.417-13.542 13.541 11.084 11.083-1.458 1.458 12 12-13.834 13.834 23.633 23.633c26.649-5.393 47.221-27.519 50.296-54.939z" fill="#2E4E73"/><path d="M55.557 42.658v10.62h-7.781v12.988h7.781v38.593h15.984V66.267h10.726s1.005-6.228 1.491-13.036H71.602V44.35c0-1.326 1.742-3.112 3.465-3.112h8.709V27.717H71.935c-16.774 0-16.378 12.999-16.378 14.941z" fill="#FFF"/></svg>

<?xml version="1.0" ?><!DOCTYPE svg  PUBLIC '-//W3C//DTD SVG 1.1//EN'  'http://www.w3.org/Graphics/SVG/1.1/DTD/svg11.dtd'><svg enable-background="new 0 0 133.252 132.369" height="132.369px" id="Layer_1" version="1.1" viewBox="0 0 133.252 132.369" width="133.252px" xml:space="preserve" xmlns="http://www.w3.org/2000/svg" xmlns:xlink="http://www.w3.org/1999/xlink"><g><g><g><g><circle cx="66.626" cy="66.185" fill="#3B5999" r="63.333"/></g></g></g><g><g><path d="M111.429,21.496c24.732,24.732,24.733,64.832-0.001,89.566c-24.733,24.733-64.834,24.733-89.566,0     L111.429,21.496z" fill="#355388"/></g></g><g><path d="M129.549,73.317L83.737,27.505L59.953,51.29l1.417,1.417L47.828,66.248l11.084,11.083l-1.458,1.458l12,12    L55.62,104.623l23.633,23.633C105.902,122.863,126.474,100.737,129.549,73.317z" fill="#2E4E73"/></g><path d="M55.557,42.658c0,1.943,0,10.62,0,10.62h-7.781v12.988h7.781v38.593h15.984V66.267h10.726   c0,0,1.005-6.228,1.491-13.036c-1.396,0-12.156,0-12.156,0s0-7.558,0-8.881c0-1.326,1.742-3.112,3.465-3.112   c1.72,0,5.349,0,8.709,0c0-1.769,0-7.878,0-13.521c-4.486,0-9.59,0-11.841,0C55.161,27.717,55.557,40.716,55.557,42.658z" fill="#FFFFFF" id="Facebook_3_"/></g></svg>
